dist/assets/images/advantages-5.svg

<?xml version="1.0" encoding="UTF-8"?>
<svg width="45px" height="36px" viewBox="0 0 45 36" version="1.1" xmlns="http://www.w3.org/2000/svg" xmlns:xlink="http://www.w3.org/1999/xlink">
    <!-- Generator: Sketch 41.2 (35397) - http://www.bohemiancoding.com/sketch -->
    <title>Imported Layers Copy 35</title>
    <desc>Created with Sketch.</desc>
    <defs></defs>
    <g id="LP:-Верстка" stroke="none" stroke-width="1" fill="none" fill-rule="evenodd">
        <g id="Главная-страница-[960]" transform="translate(-817.000000, -1030.000000)">
            <g id="Group-20-Copy-2" transform="translate(130.000000, 980.000000)">
                <g id="Imported-Layers-Copy-35" transform="translate(687.000000, 50.000000)">
                    <polygon id="Fill-1" fill="#FFFFFF" points="19.3846154 29.7692308 26.3076923 29.7692308 26.3076923 35.3076923 19.3846154 35.3076923"></polygon>
                    <path d="M42.2307692,2.76923077 C42.2307692,1.62207692 41.301,0.692307692 40.1538462,0.692307692 L5.53846154,0.692307692 C4.39130769,0.692307692 3.46153846,1.62207692 3.46153846,2.76923077 L3.46153846,27.6923077 C3.46153846,28.8394615 4.39130769,29.7692308 5.53846154,29.7692308 L40.1538462,29.7692308 C41.301,29.7692308 42.2307692,28.8394615 42.2307692,27.6923077 L42.2307692,2.76923077" id="Fill-2" fill="#FFFFFF"></path>
                    <path d="M40.1538462,30.4615385 L5.53846154,30.4615385 C4.01123077,30.4615385 2.76923077,29.2195385 2.76923077,27.6923077 L2.76923077,2.76923077 C2.76923077,1.242 4.01123077,0 5.53846154,0 L40.1538462,0 C41.6810769,0 42.9230769,1.242 42.9230769,2.76923077 L42.9230769,27.6923077 C42.9230769,29.2195385 41.6810769,30.4615385 40.1538462,30.4615385 L40.1538462,30.4615385 Z M5.53846154,1.38461538 C4.77484615,1.38461538 4.15384615,2.00561538 4.15384615,2.76923077 L4.15384615,27.6923077 C4.15384615,28.4559231 4.77484615,29.0769231 5.53846154,29.0769231 L40.1538462,29.0769231 C40.9174615,29.0769231 41.5384615,28.4559231 41.5384615,27.6923077 L41.5384615,2.76923077 C41.5384615,2.00561538 40.9174615,1.38461538 40.1538462,1.38461538 L5.53846154,1.38461538 L5.53846154,1.38461538 Z" id="Fill-3" fill="#000000"></path>
                    <polygon id="Fill-4" fill="#000000" points="24.9230769 30.4615385 26.3076923 30.4615385 26.3076923 34.6153846 24.9230769 34.6153846"></polygon>
                    <polygon id="Fill-5" fill="#000000" points="19.3846154 30.4615385 20.7692308 30.4615385 20.7692308 34.6153846 19.3846154 34.6153846"></polygon>
                    <polygon id="Fill-6" fill="#000000" points="18 34.6153846 27.6923077 34.6153846 27.6923077 36 18 36"></polygon>
                    <polygon id="Fill-7" fill="#000000" points="4.15384615 23.5384615 41.5384615 23.5384615 41.5384615 24.9230769 4.15384615 24.9230769"></polygon>
                    <polygon id="Fill-8" fill="#000000" points="22.1538462 26.3076923 23.5384615 26.3076923 23.5384615 27.6923077 22.1538462 27.6923077"></polygon>
                    <polygon id="Fill-9" fill="#000000" points="5.53846154 2.76923077 40.1538462 2.76923077 40.1538462 22.1538462 5.53846154 22.1538462"></polygon>
                    <polygon id="Fill-10" fill="#FFFFFF" points="6.92307692 4.15384615 13.8461538 4.15384615 13.8461538 8.30769231 6.92307692 8.30769231"></polygon>
                    <polygon id="Fill-11" fill="#FFFFFF" points="6.92307692 9.69230769 13.8461538 9.69230769 13.8461538 20.7692308 6.92307692 20.7692308"></polygon>
                    <polygon id="Fill-12" fill="#FFFFFF" points="15.2307692 4.15384615 22.1538462 4.15384615 22.1538462 8.30769231 15.2307692 8.30769231"></polygon>
                    <polygon id="Fill-13" fill="#FFFFFF" points="15.2307692 9.69230769 22.1538462 9.69230769 22.1538462 20.7692308 15.2307692 20.7692308"></polygon>
                    <polygon id="Fill-14" fill="#FFFFFF" points="23.5384615 4.15384615 30.4615385 4.15384615 30.4615385 8.30769231 23.5384615 8.30769231"></polygon>
                    <polygon id="Fill-15" fill="#FFFFFF" points="23.5384615 9.69230769 30.4615385 9.69230769 30.4615385 20.7692308 23.5384615 20.7692308"></polygon>
                    <polygon id="Fill-16" fill="#FFFFFF" points="31.8461538 4.15384615 38.7692308 4.15384615 38.7692308 8.30769231 31.8461538 8.30769231"></polygon>
                    <polygon id="Fill-17" fill="#FFFFFF" points="31.8461538 9.69230769 38.7692308 9.69230769 38.7692308 20.7692308 31.8461538 20.7692308"></polygon>
                    <path d="M15.9230769,33.9230769 C15.9230769,34.6880769 15.3034615,35.3076923 14.5384615,35.3076923 L2.07692308,35.3076923 C1.31192308,35.3076923 0.692307692,34.6880769 0.692307692,33.9230769 L0.692307692,14.5384615 C0.692307692,13.7741538 1.31192308,13.1538462 2.07692308,13.1538462 L14.5384615,13.1538462 C15.3034615,13.1538462 15.9230769,13.7741538 15.9230769,14.5384615 L15.9230769,33.9230769" id="Fill-18" fill="#FFFFFF"></path>
                    <path d="M14.5384615,36 L2.07692308,36 C0.931846154,36 0,35.0681538 0,33.9230769 L0,14.5384615 C0,13.3933846 0.931846154,12.4615385 2.07692308,12.4615385 L14.5384615,12.4615385 C15.6835385,12.4615385 16.6153846,13.3933846 16.6153846,14.5384615 L16.6153846,33.9230769 C16.6153846,35.0681538 15.6835385,36 14.5384615,36 L14.5384615,36 Z M2.07692308,13.8461538 C1.69546154,13.8461538 1.38461538,14.157 1.38461538,14.5384615 L1.38461538,33.9230769 C1.38461538,34.3045385 1.69546154,34.6153846 2.07692308,34.6153846 L14.5384615,34.6153846 C14.9199231,34.6153846 15.2307692,34.3045385 15.2307692,33.9230769 L15.2307692,14.5384615 C15.2307692,14.157 14.9199231,13.8461538 14.5384615,13.8461538 L2.07692308,13.8461538 L2.07692308,13.8461538 Z" id="Fill-19" fill="#000000"></path>
                    <polygon id="Fill-20" fill="#000000" points="6.92307692 31.8461538 9.69230769 31.8461538 9.69230769 33.2307692 6.92307692 33.2307692"></polygon>
                    <polygon id="Fill-21" fill="#000000" points="2.76923077 15.2307692 6.92307692 15.2307692 6.92307692 18 2.76923077 18"></polygon>
                    <polygon id="Fill-22" fill="#000000" points="2.76923077 19.3846154 6.92307692 19.3846154 6.92307692 30.4615385 2.76923077 30.4615385"></polygon>
                    <polygon id="Fill-23" fill="#000000" points="8.30769231 15.2307692 13.8461538 15.2307692 13.8461538 18 8.30769231 18"></polygon>
                    <polygon id="Fill-24" fill="#000000" points="8.30769231 19.3846154 13.8461538 19.3846154 13.8461538 30.4615385 8.30769231 30.4615385"></polygon>
                    <path d="M43.6153846,33.9230769 C43.6153846,34.6880769 42.9950769,35.3076923 42.2307692,35.3076923 L35.3076923,35.3076923 C34.5426923,35.3076923 33.9230769,34.6880769 33.9230769,33.9230769 L33.9230769,20.0769231 C33.9230769,19.3119231 34.5426923,18.6923077 35.3076923,18.6923077 L42.2307692,18.6923077 C42.9950769,18.6923077 43.6153846,19.3119231 43.6153846,20.0769231 L43.6153846,33.9230769" id="Fill-25" fill="#FFFFFF"></path>
                    <path d="M42.2307692,36 L35.3076923,36 C34.1626154,36 33.2307692,35.0681538 33.2307692,33.9230769 L33.2307692,20.0769231 C33.2307692,18.9318462 34.1626154,18 35.3076923,18 L42.2307692,18 C43.3758462,18 44.3076923,18.9318462 44.3076923,20.0769231 L44.3076923,33.9230769 C44.3076923,35.0681538 43.3758462,36 42.2307692,36 L42.2307692,36 Z M35.3076923,19.3846154 C34.9262308,19.3846154 34.6153846,19.6954615 34.6153846,20.0769231 L34.6153846,33.9230769 C34.6153846,34.3045385 34.9262308,34.6153846 35.3076923,34.6153846 L42.2307692,34.6153846 C42.6122308,34.6153846 42.9230769,34.3045385 42.9230769,33.9230769 L42.9230769,20.0769231 C42.9230769,19.6954615 42.6122308,19.3846154 42.2307692,19.3846154 L35.3076923,19.3846154 L35.3076923,19.3846154 Z" id="Fill-26" fill="#000000"></path>
                    <polygon id="Fill-27" fill="#000000" points="36 20.7692308 41.5384615 20.7692308 41.5384615 24.9230769 36 24.9230769"></polygon>
                    <polygon id="Fill-28" fill="#000000" points="36 26.3076923 41.5384615 26.3076923 41.5384615 27.6923077 36 27.6923077"></polygon>
                    <polygon id="Fill-29" fill="#000000" points="36 29.0769231 41.5384615 29.0769231 41.5384615 30.4615385 36 30.4615385"></polygon>
                    <polygon id="Fill-30" fill="#000000" points="38.0769231 31.8461538 39.4615385 31.8461538 39.4615385 33.2307692 38.0769231 33.2307692"></polygon>
                </g>
            </g>
        </g>
    </g>
</svg>

<svg width="45" height="36" viewBox="0 0 45 36" xmlns="http://www.w3.org/2000/svg"><title>Imported Layers Copy 35</title><g fill="none" fill-rule="evenodd"><path fill="#FFF" d="M19.385 29.77h6.923v5.538h-6.923zm22.845-27A2.076 2.076 0 0 0 40.154.692H5.538c-1.147 0-2.076.93-2.076 2.077v24.923c0 1.147.93 2.077 2.076 2.077h34.616c1.147 0 2.077-.93 2.077-2.077V2.77"/><path d="M40.154 30.462H5.538a2.772 2.772 0 0 1-2.769-2.77V2.77A2.772 2.772 0 0 1 5.54 0h34.615a2.772 2.772 0 0 1 2.77 2.77v24.922a2.772 2.772 0 0 1-2.77 2.77zM5.538 1.385c-.763 0-1.384.62-1.384 1.384v24.923c0 .764.62 1.385 1.384 1.385h34.616c.763 0 1.384-.621 1.384-1.385V2.77c0-.763-.62-1.384-1.384-1.384H5.538zm19.385 29.077h1.385v4.153h-1.385zm-5.538 0h1.384v4.153h-1.384zM18 34.615h9.692V36H18z" fill="#000"/><path fill="#000" d="M4.154 23.538h37.384v1.385H4.154zm18 2.77h1.384v1.384h-1.384zM5.538 2.77h34.616v19.384H5.538z"/><path fill="#FFF" d="M6.923 4.154h6.923v4.154H6.923zm0 5.538h6.923V20.77H6.923zm8.307-5.538h6.924v4.154H15.23zm0 5.538h6.924V20.77H15.23zm8.308-5.538h6.924v4.154h-6.924zm0 5.538h6.924V20.77h-6.924zm8.308-5.538h6.923v4.154h-6.923zm0 5.538h6.923V20.77h-6.923z"/><path d="M15.923 33.923c0 .765-.62 1.385-1.385 1.385H2.077c-.765 0-1.385-.62-1.385-1.385V14.538c0-.764.62-1.384 1.385-1.384h12.461c.765 0 1.385.62 1.385 1.384v19.385" fill="#FFF"/><path d="M14.538 36H2.077A2.08 2.08 0 0 1 0 33.923V14.538a2.08 2.08 0 0 1 2.077-2.076h12.461a2.08 2.08 0 0 1 2.077 2.076v19.385A2.08 2.08 0 0 1 14.538 36zM2.077 13.846a.693.693 0 0 0-.692.692v19.385c0 .382.31.692.692.692h12.461c.382 0 .693-.31.693-.692V14.538a.693.693 0 0 0-.693-.692H2.077z" fill="#000"/><path fill="#000" d="M6.923 31.846h2.77v1.385h-2.77zM2.77 15.23h4.153V18H2.77zm0 4.155h4.153v11.077H2.77zm5.538-4.155h5.538V18H8.308zm0 4.155h5.538v11.077H8.308z"/><path d="M43.615 33.923c0 .765-.62 1.385-1.384 1.385h-6.923c-.765 0-1.385-.62-1.385-1.385V20.077c0-.765.62-1.385 1.385-1.385h6.923c.764 0 1.384.62 1.384 1.385v13.846" fill="#FFF"/><path d="M42.23 36h-6.922a2.08 2.08 0 0 1-2.077-2.077V20.077A2.08 2.08 0 0 1 35.308 18h6.923a2.08 2.08 0 0 1 2.077 2.077v13.846A2.08 2.08 0 0 1 42.23 36zm-6.922-16.615a.693.693 0 0 0-.693.692v13.846c0 .382.311.692.693.692h6.923c.381 0 .692-.31.692-.692V20.077a.693.693 0 0 0-.692-.692h-6.923z" fill="#000"/><path fill="#000" d="M36 20.77h5.538v4.153H36zm0 5.538h5.538v1.384H36zm0 2.769h5.538v1.385H36zm2.077 2.769h1.385v1.385h-1.385z"/></g></svg>
